X:1
T:The Art of Preluding
T:The Art of Preluding
T:Op.300  N°10
T:Carl Czerny
C:Carl Czerny
%%score { ( 1 4 ) | ( 2 3 ) }
L:1/8
Q:1/4=108
M:4/4
K:Bb
V:1 treble nm="Piano" snm="Pno."
V:4 treble 
V:2 bass 
V:3 bass 
V:1
"^Allegretto moderato"!p! z2"_legato" (3(BDG) z2 (3(dDG) | z2 (3(eEG) z2 (3(gGc) | %2
 z2 (3(^fAd) z2 (3(acd) | z2 (3(bBd) z2 (3(d'dg) |"_Dol." (3egc' (3e'gb (3ac'g' (3f'c'e' | %5
 (3dfb (3d'fa (3gbf' (3e'bd' | (3ceg (3c'eg (3!1!^f!2!a!5!e' (3!5!d'!2!a!4!c' | %7
 (3(!3!b!1!d!5!b (3!4!a!1!c!5!a (3!4!g!1!B!5!g (3!4!f!1!_A!5!f | (3eGe (3dFd (3cEc (3dDd) | %9
"_dim." (3BDB (3ACA (3GB,G (3AEA | (3z DE (3DAG (3z CD (3CG^F |!pp! (3z B,D (3GDB, x4 | z8 |] %13
V:2
 (3(G,,B,,D, G,2 (3B,,D,G, B,2) | (3(C,E,G, C2 (3E,G,C E2) | (3(D,^F,A, D2 (3F,A,D ^F2) | %3
[K:treble] (3(G,B,D G2 (3B,DG B2) | (C2 !1!c2 !2!F2 !5!A,2 | !4!B,2 !1!B2 !2!E2 !5!G,2 | %6
 !4!A,2 A2 D2 ^F,2) | (G,2 !3!!1![D^F]2 !2!!1![EG]2 !4!!2![=B,D]2 | %8
 !3!!1![CE]2[K:bass] !4!!2![G,=B,]2 !3!!1![_A,C]2 !4!!2![^F,=A,]2) | %9
 !3!!1![G,B,]2 !5!!3![D,^F,]2 [E,G,]2 [C,C]2 | B,4 A,4 |!ped! [G,,D,G,]4 (3G,D,B,, (3G,,D,,B,,, | %12
 G,,,8!ped-up! |] %13
V:3
 G,,4 B,,4 | C,4 E,4 | D,4 ^F,4 |[K:treble] G,4 B,4 | x8 | x8 | x8 | x8 | x2[K:bass] x6 | x8 | %10
 D,8 | x8 | x8 |] %13
V:4
 x8 | x8 | x8 | x8 | e4 a2 f'2 | d4 g2 e'2 | c4 ^f2 d'2 | x8 | x8 | x8 | z2 D2 z2 C2 | x8 | x8 |] %13

